assets/icons/24px/stroke/medical-24px.svg

<svg width="24" height="24" viewBox="0 0 24 24" fill="none" xmlns="http://www.w3.org/2000/svg">
<path fill-rule="evenodd" clip-rule="evenodd" d="M2.75175 4.06881C3.96881 2.75445 5.63671 2 7.39368 2C7.41488 2 7.43607 2.00067 7.45723 2.00202C8.56578 2.07261 9.63713 2.43158 10.5798 3.04234C11.1081 3.38463 11.5846 3.80335 12 4.27822C12.4154 3.80335 12.8919 3.38463 13.4202 3.04234C14.3629 2.43158 15.4342 2.07261 16.5428 2.00202C16.5639 2.00067 16.5851 2 16.6063 2C18.3633 2 20.0312 2.75445 21.2483 4.06881C22.5028 5.42369 23 7.2438 23 9C23 9.55228 22.5523 10 22 10C21.4477 10 21 9.55228 21 9C21 7.59013 20.5992 6.31154 19.7808 5.42766C18.9325 4.51159 17.8016 4.0091 16.638 4.00012C15.8902 4.05322 15.1599 4.29825 14.5077 4.72084C13.8596 5.14071 13.2991 5.74458 12.885 6.46679L12.8794 6.47651C12.8767 6.48107 12.8721 6.48894 12.8664 6.49836C12.8575 6.51296 12.8319 6.55458 12.794 6.6028C12.732 6.68164 12.4718 6.98971 12 6.98971C11.5282 6.98971 11.268 6.68164 11.206 6.6028C11.1681 6.55458 11.1425 6.51296 11.1336 6.49836C11.1279 6.48894 11.1233 6.48107 11.1206 6.47651L11.115 6.46679C10.7009 5.74458 10.1404 5.14071 9.49231 4.72084C8.84007 4.29825 8.10977 4.05322 7.36196 4.00012C6.19837 4.0091 5.0675 4.51159 4.21923 5.42766C3.40078 6.31154 3 7.59013 3 9C3 10.1505 3.51317 11.4836 4.40824 12.9023C5.29314 14.3049 6.48957 15.6945 7.71235 16.9357C8.93136 18.173 10.1541 19.2401 11.0739 19.9989C11.4402 20.3012 11.7574 20.5536 12.0057 20.7473C12.3121 20.5126 12.7226 20.1907 13.2011 19.7973C14.27 18.9184 15.667 17.6917 16.9952 16.2907C17.3752 15.8899 18.0082 15.873 18.4089 16.253C18.8097 16.633 18.8266 17.2659 18.4466 17.6667C17.0434 19.1468 15.5799 20.4307 14.4713 21.3422C13.9158 21.7989 13.4467 22.1643 13.1152 22.4165C12.9494 22.5426 12.8178 22.6405 12.7269 22.7075C12.6814 22.741 12.6461 22.7668 12.6217 22.7845L12.5934 22.805L12.5856 22.8106L12.5833 22.8122L12.5823 22.813C12.5822 22.813 12.5821 22.8131 12 22C11.4104 22.8077 11.4102 22.8076 11.41 22.8074L11.4074 22.8055L11.4008 22.8006L11.3769 22.783C11.3563 22.7678 11.3266 22.7457 11.2882 22.717C11.2115 22.6596 11.1004 22.5756 10.9599 22.4672C10.6788 22.2506 10.2794 21.9363 9.80112 21.5417C8.84594 20.7537 7.56864 19.6395 6.28765 18.3393C5.01043 17.0429 3.70686 15.5388 2.71676 13.9695C1.73683 12.4163 1 10.6995 1 9C1 7.24379 1.49717 5.42368 2.75175 4.06881ZM12 22L11.41 22.8074C11.7585 23.0618 12.2315 23.0641 12.5823 22.813L12 22ZM11.15 5.47183C11.141 5.48764 11.1435 5.48225 11.1537 5.46545C11.1525 5.46758 11.1512 5.4697 11.15 5.47183ZM12.8463 5.46545C12.8565 5.48225 12.859 5.48764 12.85 5.47183C12.8488 5.4697 12.8475 5.46758 12.8463 5.46545Z" fill="white"/>
<path fill-rule="evenodd" clip-rule="evenodd" d="M9.91017 9.00403C10.2553 8.97291 10.592 9.12273 10.8 9.39999L13.1082 12.4776L14.2929 11.2929C14.6834 10.9024 15.3166 10.9024 15.7071 11.2929L17.0938 12.6796L17.8666 12.1C17.8844 12.0867 17.9026 12.0729 17.9213 12.0588C18.1262 11.9039 18.3861 11.7075 18.7009 11.6026C19.0156 11.4977 19.3413 11.4989 19.5982 11.4998C19.6216 11.4999 19.6444 11.5 19.6666 11.5H22C22.5523 11.5 23 11.9477 23 12.5C23 13.0523 22.5523 13.5 22 13.5H19.6666C19.4894 13.5 19.4018 13.5004 19.3385 13.5044C19.3373 13.5045 19.3361 13.5046 19.3349 13.5047C19.3339 13.5053 19.3328 13.506 19.3318 13.5067C19.2788 13.5415 19.2084 13.5937 19.0666 13.7L17.6 14.8C17.2019 15.0986 16.6448 15.059 16.2929 14.7071L15 13.4142L13.7071 14.7071C13.5021 14.9121 13.2182 15.018 12.9291 14.9975C12.6399 14.9769 12.3739 14.8319 12.2 14.6L10.1708 11.8944L8.8944 14.4472C8.64741 14.9412 8.04674 15.1414 7.55276 14.8944C7.05878 14.6474 6.85856 14.0468 7.10555 13.5528L9.10555 9.55278C9.26054 9.24279 9.56499 9.03516 9.91017 9.00403Z" fill="white"/>
</svg>

<svg width="24" height="24" fill="none" xmlns="http://www.w3.org/2000/svg"><path fill-rule="evenodd" clip-rule="evenodd" d="M2.752 4.069C3.969 2.754 5.637 2 7.394 2a6.498 6.498 0 0 1 3.186 1.042A6.818 6.818 0 0 1 12 4.278a6.818 6.818 0 0 1 1.42-1.236A6.498 6.498 0 0 1 16.606 2c1.757 0 3.425.754 4.642 2.069C22.503 5.424 23 7.244 23 9a1 1 0 1 1-2 0c0-1.41-.4-2.688-1.22-3.572-.848-.916-1.978-1.419-3.142-1.428a4.5 4.5 0 0 0-2.13.72 5.09 5.09 0 0 0-1.623 1.747l-.006.01-.013.021a1.01 1.01 0 0 1-1.733 0l-.012-.021-.006-.01A5.09 5.09 0 0 0 9.492 4.72 4.5 4.5 0 0 0 7.362 4c-1.164.008-2.295.51-3.143 1.427C3.401 6.312 3 7.59 3 9c0 1.15.513 2.484 1.408 3.902.885 1.403 2.082 2.793 3.304 4.034a44.978 44.978 0 0 0 4.294 3.811c.306-.234.717-.556 1.195-.95a42.664 42.664 0 0 0 3.794-3.506 1 1 0 1 1 1.452 1.376 44.652 44.652 0 0 1-3.976 3.675 46.254 46.254 0 0 1-1.85 1.443l-.028.02-.007.006-.003.001v.001L12 22l-.59.807-.003-.002-.006-.004-.024-.018a19.432 19.432 0 0 1-.417-.316 46.983 46.983 0 0 1-4.672-4.128c-1.278-1.296-2.581-2.8-3.571-4.37C1.737 12.416 1 10.7 1 9c0-1.756.497-3.576 1.752-4.931zM12 22l-.59.807c.348.255.822.257 1.172.006L12 22zm-.85-16.528c-.009.016-.007.01.004-.007l-.004.007zm1.696-.007l.004.007-.004-.007z" fill="#fff"/><path fill-rule="evenodd" clip-rule="evenodd" d="M9.91 9.004a1 1 0 0 1 .89.396l2.308 3.078 1.185-1.185a1 1 0 0 1 1.414 0l1.387 1.387.773-.58.054-.041c.205-.155.465-.351.78-.456.315-.105.64-.104.897-.103H22a1 1 0 1 1 0 2h-2.333c-.178 0-.265 0-.329.004h-.003a6.114 6.114 0 0 0-.268.195L17.6 14.801a1 1 0 0 1-1.307-.093L15 13.414l-1.293 1.293A1 1 0 0 1 12.2 14.6l-2.03-2.706-1.276 2.553a1 1 0 1 1-1.788-.894l2-4a1 1 0 0 1 .804-.549z" fill="#fff"/></svg>
